svg/fluentui-system-icons/ic_fluent_document_table_cube_24_regular.svg

<svg width="24" height="24" viewBox="0 0 24 24" fill="none" xmlns="http://www.w3.org/2000/svg">
<path d="M17 13.25C17 12.2835 16.2165 11.5 15.25 11.5H8.75C8.33198 11.5 7.94818 11.6466 7.64721 11.8911L9.86497 13H10V13.0675L10.5985 13.3668C10.9625 13.5488 11.2689 13.8125 11.5 14.1292V13H15.25C15.3881 13 15.5 13.1119 15.5 13.25V14.5H11.7241C11.8898 14.8371 11.9805 15.2131 11.9805 15.6028V16H15.5V17.25C15.5 17.3881 15.3881 17.5 15.25 17.5H11.9805V19H15.25C16.2165 19 17 18.2165 17 17.25V13.25ZM11.865 20.5H18C18.276 20.5 18.5 20.275 18.5 20V10H14C12.896 10 12 9.104 12 8V3.5H6C5.724 3.5 5.5 3.725 5.5 4V11.3994C5.28105 11.4423 5.0665 11.5147 4.86243 11.6168L4 12.048V4C4 2.896 4.896 2 6 2H12.172C12.1999 2 12.2271 2.00371 12.2542 2.00741C12.2738 2.01008 12.2933 2.01274 12.313 2.014C12.528 2.029 12.74 2.07 12.937 2.152C12.9944 2.17648 13.0488 2.20797 13.103 2.23933C13.1197 2.24897 13.1363 2.25859 13.153 2.268C13.1685 2.27647 13.1845 2.28426 13.2005 2.29207C13.2281 2.30548 13.2557 2.31894 13.281 2.336C13.359 2.389 13.429 2.452 13.5 2.516C13.5115 2.5262 13.5238 2.53567 13.5363 2.5452C13.5531 2.55808 13.57 2.57105 13.585 2.586L19.414 8.414C19.789 8.789 20 9.298 20 9.828V20C20 21.104 19.104 22 18 22H10.5681L10.5985 21.9848C11.2138 21.6771 11.6645 21.1361 11.865 20.5ZM14 8.5H17.378L13.5 4.621V8C13.5 8.275 13.724 8.5 14 8.5ZM0.980469 19.7484V15.6025C0.980469 15.0344 1.30147 14.515 1.80965 14.2609L5.30965 12.5109C5.73194 12.2998 6.229 12.2998 6.65129 12.5109L10.1513 14.2609C10.6595 14.515 10.9805 15.0344 10.9805 15.6025V19.7484C10.9805 20.3166 10.6595 20.836 10.1513 21.0901L6.65129 22.8401C6.229 23.0512 5.73194 23.0512 5.30965 22.8401L1.80965 21.0901C1.30147 20.836 0.980469 20.3166 0.980469 19.7484ZM2.53326 15.7019C2.40976 15.9489 2.50987 16.2492 2.75686 16.3727L5.48047 17.7345V20.6755C5.48047 20.9516 5.70433 21.1755 5.98047 21.1755C6.25661 21.1755 6.48047 20.9516 6.48047 20.6755V17.7345L9.20407 16.3727C9.45107 16.2492 9.55118 15.9489 9.42768 15.7019C9.30419 15.4549 9.00385 15.3548 8.75686 15.4783L5.98047 16.8665L3.20408 15.4783C2.95709 15.3548 2.65675 15.4549 2.53326 15.7019Z" fill="#212121"/>
</svg>

<svg xmlns="http://www.w3.org/2000/svg" width="24" height="24"><path d="M17 13.25a1.75 1.75 0 0 0-1.75-1.75h-6.5c-.418 0-.802.147-1.103.391L9.865 13H10v.068l.598.299c.364.182.67.445.902.762V13h3.75a.25.25 0 0 1 .25.25v1.25h-3.776c.166.337.256.713.256 1.103V16h3.52v1.25a.25.25 0 0 1-.25.25h-3.27V19h3.27A1.75 1.75 0 0 0 17 17.25v-4Zm-5.135 7.25H18a.5.5 0 0 0 .5-.5V10H14a2 2 0 0 1-2-2V3.5H6a.5.5 0 0 0-.5.5v7.4a2.498 2.498 0 0 0-.638.217L4 12.048V4a2 2 0 0 1 2-2h6.172c.028 0 .055.004.082.007a.63.63 0 0 0 .059.007c.215.015.427.056.624.138.057.024.112.056.166.087l.05.029.047.024a.652.652 0 0 1 .081.044c.078.053.148.116.219.18a.63.63 0 0 0 .036.03.491.491 0 0 1 .049.04l5.829 5.828A2 2 0 0 1 20 9.828V20a2 2 0 0 1-2 2h-7.432l.03-.015a2.5 2.5 0 0 0 1.267-1.485ZM14 8.5h3.378L13.5 4.621V8a.5.5 0 0 0 .5.5ZM.98 19.748v-4.146a1.5 1.5 0 0 1 .83-1.341l3.5-1.75a1.5 1.5 0 0 1 1.341 0l3.5 1.75a1.5 1.5 0 0 1 .83 1.341v4.146a1.5 1.5 0 0 1-.83 1.342l-3.5 1.75a1.5 1.5 0 0 1-1.341 0l-3.5-1.75a1.5 1.5 0 0 1-.83-1.342Zm1.553-4.046a.5.5 0 0 0 .224.67l2.723 1.363v2.94a.5.5 0 0 0 1 0v-2.94l2.724-1.362a.5.5 0 1 0-.447-.895L5.98 16.866l-2.776-1.388a.5.5 0 0 0-.67.224Z"/></svg>
